!!!OTL: Wo treff' ich meinen Schaefer an, wo werd' ich ihn wohl finden
!!!ARE: Europa, Mitteleuropa, Deutschland, Harz, St. Andreasberg
!!!SCT: D0235B
!!!YEM: Copyright 1995, estate of Helmut Schaffrath.
**kern
*ICvox
*Ivox
*M3/4
*k[f#]
*G:
{8d
=1
8d
8g
4g
4b
=2
8.b
16a
4.a}
{8b
=3
8cc
8ee
4dd
4b
=4
4a
4g
8r}
{8d
=5
8d
8g
4g
4b
=6
8.b
16a
4.a}
{8b
=7
8cc
8ee
4dd
4b
=8
4a
4g
4r}
=9
{8.dd
16b
4b
4a
=10
8.dd
16cc
4cc
4b}
=11
{8.dd
16b
4b
4a
=12
8.dd
16cc
4cc
8b}
{8g
=13
8g
8g
4g
4b
=14
4b
4a
8r}
{8b
=15
8cc
8ee
4dd
4b
=16
4a
4g
8r}
==
!!!AGN: Tanz - Lied
!! Keine Variante zu den beiden vorigen Liedern !! (DVA-Signatur 235e)
!!!ONB: ESAC (Essen Associative Code) Database: DVA
!!!AMT: simple triple
!!!AIN: vox
!!!EED: Helmut Schaffrath
!!!EEV: 1.0
*-
